X: 43305
T: Woods In Bloom, The
R: slip jig
M: 9/8
K: Dmajor
A2B ABd efg|gfe dBd BAF|EFA ABd efg|f3e2d d3:|
=c2e dcB ABc|dfe dBd BAF|=c2e dcB ABc|d2f e2d d3|
=c2e dcB ABc|dfe dBd BAF|EFA ABd efg|f3 e2d d3||
f2a a2b agf|afe dBd BAF|fab a2f agf|efg fed d2e|
f2a a2b agf|afe dBd BAF|EFA ABd efg|f3 e2d d3||
=c2e dcB ABc|dfe dBd BAF|=c2e dcB ABc|d2f e2d d3|
=c2e dcB ABc|dfe dBd BAF|EFA ABd efg|f3 e2d d3||

